X:9
T:Hora de la Gaesti
R:hora
S:Trio Polifonic on Youtube
H:Played in Bbmix on the recording, but transposed here to a more decent key.
Z:id:hn-hora-9
M:C|
L:1/8
K:Amix
cdec decd | BBBA BcdB | cBdc ed=f2 | eAcd e3B |
cde2 decd | BBBA Bcde | g2=fe ecde | c_BGB A4 |
d2d3 Bc^A | BBBA BcdB | cBdc ed=f2 | eAcd e3B |
cde2 decd | BBBA Bcde | g2=fe ecde | c_BGB A3=B ||
|: cBA3 EAB | cde2 e4 | a2b2- b2a^g | f^gf^d e3e |
f^gaf b2ag | f^gf^d eee=d | e=ddc cBBc | dccB cde2 |
cBA3 EAB | cde2 e4 | a2b2- b2a^g | f^gf^d e3e |
f^gaf b2ag | f^gf^d eee=d | e=ddc cBBc | dB^GB A3B :|



